svg/Pictogram/pictograms-nps-4-wheel-drive_road.svg

<svg xmlns="http://www.w3.org/2000/svg" width="123.55" height="123.54" viewBox="-0.258 -0.548 123.547 123.539" enable-background="new -0.258 -0.548 123.547 123.539"><path d="m109.08 123.07c8.148 0 14.766-6.609 14.766-14.75v-94.03c0-8.156-6.617-14.758-14.766-14.758h-94.02c-8.148 0-14.742 6.602-14.742 14.758v94.03c0 8.141 6.594 14.75 14.742 14.75h94.02"/><path d="m15.05 2.035c-6.75 0-12.242 5.5-12.242 12.258v94.03c0 6.75 5.492 12.242 12.242 12.242h94.02c6.773 0 12.266-5.492 12.266-12.242v-94.03c0-6.758-5.492-12.258-12.266-12.258h-94.02"/><g fill="#fff"><path d="m93.65 83.22c2.914 0 5.258-2.367 5.258-5.289 0-2.891-2.344-5.258-5.258-5.258-2.922 0-5.266 2.367-5.266 5.258.0001 2.922 2.345 5.289 5.266 5.289m-12.164-5.289c0-6.695 5.438-12.148 12.164-12.148 6.703 0 12.141 5.453 12.141 12.148 0 6.727-5.438 12.172-12.141 12.172-6.726 0-12.164-5.446-12.164-12.172"/><path d="m111.73 64.918l-.023-12.258c0-4.883-4.344-4.367-4.344-4.367h-24.562l-8.961-15.12h-5.274l8.961 15.12-6.789 11.484-15.477-.023c-5.344-10.977-16.211-10.289-16.211-10.289h-29.343v26.09h4.195c.563-8.875 9.09-15.914 18.09-15.914s17.555 7.05 18.09 15.914l25.508.023c.539-8.883 9.09-15.938 18.09-15.938s17.578 7.05 18.09 15.953l1.586.016c1.758 0 3.172-1.43 3.172-3.18v-7.516h-4.814z"/><path d="m31.953 83.22c2.914 0 5.281-2.367 5.281-5.289 0-2.891-2.367-5.258-5.281-5.258-2.898 0-5.266 2.367-5.266 5.258.0001 2.922 2.368 5.289 5.266 5.289m-12.148-5.289c0-6.695 5.445-12.148 12.148-12.148 6.727 0 12.148 5.453 12.148 12.148 0 6.727-5.422 12.172-12.148 12.172-6.703 0-12.148-5.446-12.148-12.172"/></g></svg>

<?xml version="1.0" encoding="iso-8859-1"?>
<!-- Generator: Adobe Illustrator 13.0.2, SVG Export Plug-In . SVG Version: 6.00 Build 14948)  -->
<!DOCTYPE svg PUBLIC "-//W3C//DTD SVG 1.1//EN" "http://www.w3.org/Graphics/SVG/1.1/DTD/svg11.dtd">
<svg version="1.1" id="Layer_1" xmlns="http://www.w3.org/2000/svg" xmlns:xlink="http://www.w3.org/1999/xlink" x="0px" y="0px"
	 width="123.547px" height="123.539px" viewBox="-0.258 -0.548 123.547 123.539"
	 style="enable-background:new -0.258 -0.548 123.547 123.539;" xml:space="preserve">
<g>
	<path style="fill:#000000;" d="M109.078,123.074c8.148,0,14.766-6.609,14.766-14.75V14.293c0-8.156-6.617-14.758-14.766-14.758
		H15.055c-8.148,0-14.742,6.602-14.742,14.758v94.031c0,8.141,6.594,14.75,14.742,14.75H109.078z"/>
	<path d="M15.055,2.035c-6.75,0-12.242,5.5-12.242,12.258v94.031c0,6.75,5.492,12.242,12.242,12.242h94.023
		c6.773,0,12.266-5.492,12.266-12.242V14.293c0-6.758-5.492-12.258-12.266-12.258H15.055z"/>
	<path style="fill:#FFFFFF;" d="M93.648,83.215c2.914,0,5.258-2.367,5.258-5.289c0-2.891-2.344-5.258-5.258-5.258
		c-2.922,0-5.266,2.367-5.266,5.258C88.383,80.848,90.727,83.215,93.648,83.215z M81.484,77.926c0-6.695,5.438-12.148,12.164-12.148
		c6.703,0,12.141,5.453,12.141,12.148c0,6.727-5.438,12.172-12.141,12.172C86.922,90.098,81.484,84.652,81.484,77.926z"/>
	<path style="fill:#FFFFFF;" d="M111.734,64.918l-0.023-12.258c0-4.883-4.344-4.367-4.344-4.367H82.805l-8.961-15.117H68.57
		l8.961,15.117l-6.789,11.484l-15.477-0.023c-5.344-10.977-16.211-10.289-16.211-10.289H9.711v26.094h4.195
		C14.469,66.684,22.992,59.645,32,59.645s17.555,7.055,18.094,15.914l25.508,0.023c0.539-8.883,9.086-15.938,18.094-15.938
		s17.578,7.055,18.094,15.953l1.586,0.016c1.758,0,3.172-1.43,3.172-3.18v-7.516H111.734z"/>
	<path style="fill:#FFFFFF;" d="M31.953,83.215c2.914,0,5.281-2.367,5.281-5.289c0-2.891-2.367-5.258-5.281-5.258
		c-2.898,0-5.266,2.367-5.266,5.258C26.688,80.848,29.055,83.215,31.953,83.215z M19.805,77.926c0-6.695,5.445-12.148,12.148-12.148
		c6.727,0,12.148,5.453,12.148,12.148c0,6.727-5.422,12.172-12.148,12.172C25.25,90.098,19.805,84.652,19.805,77.926z"/>
</g>
</svg>
